assets/icons/announcement.svg

<svg width="20" height="20" viewBox="0 0 20 20" fill="none" xmlns="http://www.w3.org/2000/svg">
<path d="M10.9342 11.8628V5.36518M10.9342 11.8628L15.0781 14.6949C15.1521 14.7373 15.236 14.7595 15.3213 14.7593C15.4067 14.7591 15.4904 14.7364 15.5643 14.6937C15.6381 14.6509 15.6995 14.5895 15.7421 14.5156C15.7848 14.4417 15.8073 14.3579 15.8074 14.2726V2.95538C15.8074 2.86998 15.785 2.78607 15.7424 2.71206C15.6998 2.63804 15.6385 2.57653 15.5646 2.53367C15.4908 2.49081 15.4069 2.46812 15.3215 2.46787C15.2361 2.46761 15.1522 2.4898 15.0781 2.53222L10.9342 5.36518M10.9342 11.8628H5.2488M10.9342 5.36518H5.2488C4.38717 5.36518 3.56082 5.70746 2.95155 6.31673C2.34228 6.926 2 7.75234 2 8.61398C2 9.47561 2.34228 10.302 2.95155 10.9112C3.56082 11.5205 4.38717 11.8628 5.2488 11.8628M5.2488 11.8628L5.86364 16.1674C5.92779 16.5863 6.15463 16.9628 6.49487 17.2153C6.83511 17.4678 7.26124 17.5759 7.68068 17.5159C8.10012 17.456 8.47896 17.233 8.73489 16.8953C8.99082 16.5577 9.10314 16.1326 9.04746 15.7126L8.4976 11.8628H5.2488ZM15.8074 10.9918C17.0183 10.9918 18 10.0101 18 8.79921C18 7.58827 17.0183 6.60662 15.8074 6.60662" stroke="currentColor" stroke-width="1.25"/>
</svg>

<svg xmlns="http://www.w3.org/2000/svg" width="20" height="20" fill="none" viewBox="0 0 20 20"><path stroke="currentColor" stroke-width="1.25" d="M10.934 11.863V5.365m0 6.498 4.144 2.832a.487.487 0 0 0 .73-.422V2.955a.488.488 0 0 0-.73-.423l-4.144 2.833m0 6.498H5.25m5.685-6.498H5.25a3.249 3.249 0 1 0 0 6.498m0 0 .615 4.304a1.608 1.608 0 0 0 3.183-.454l-.55-3.85zm10.558-.871a2.193 2.193 0 0 0 0-4.385"/></svg>
